dist/assets/images/about/2001.svg

<svg width="27" height="99" viewBox="0 0 27 99" fill="none" xmlns="http://www.w3.org/2000/svg">
<path fill-rule="evenodd" clip-rule="evenodd" d="M18.995 74.3251H26L26 98.7251H19.6526L12.9275 86.6637C12.9272 86.6632 12.9269 86.6627 12.9266 86.6622C12.2806 85.5086 11.7668 84.6742 11.3806 84.1375C10.962 83.565 10.6613 83.2881 10.4855 83.1826L10.4777 83.1779L10.47 83.1731C10.2652 83.0451 10.031 82.9751 9.73996 82.9751H9.42496C9.17458 82.9751 8.99446 83.0335 8.85059 83.125C8.70155 83.2199 8.53729 83.3853 8.37882 83.6772L8.37062 83.6923L8.3619 83.7071C8.02651 84.2773 7.79996 85.2236 7.79996 86.6651C7.79996 88.2007 8.07779 89.238 8.51038 89.8955L8.51394 89.9009C8.8755 90.4583 9.37547 90.7401 10.16 90.7401H11.86V98.7251H10.125C7.06657 98.7251 4.61918 97.7135 2.96582 95.5743C1.32538 93.482 0.584964 90.4938 0.584963 86.7701C0.584963 83.185 1.2677 80.2527 2.75329 78.0874C4.24771 75.8745 6.39078 74.7451 9.07496 74.7451H9.42496C11.2653 74.7451 12.9268 75.3888 14.3784 76.6289M3.57996 78.6501C2.24996 80.5868 1.58496 83.2934 1.58496 86.7701C1.58496 90.3868 2.3083 93.1168 3.75496 94.9601C5.13341 96.7453 7.16842 97.6661 9.85996 97.7224C9.9476 97.7242 10.0359 97.7251 10.125 97.7251H10.86V91.7401H10.16C9.0633 91.7401 8.23496 91.3084 7.67496 90.4451C7.09163 89.5584 6.79996 88.2984 6.79996 86.6651C6.79996 85.1484 7.0333 83.9934 7.49996 83.2001C7.9433 82.3834 8.58496 81.9751 9.42496 81.9751H9.73996C10.2066 81.9751 10.6266 82.0918 11 82.3251C11.35 82.5351 11.7466 82.9434 12.19 83.5501C12.61 84.1334 13.1466 85.0084 13.8 86.1751L20.24 97.7251H25L25 75.3251H19.995V86.8751L17.825 82.9551C16.355 80.3184 14.99 78.4634 13.73 77.3901C12.4466 76.2934 11.0116 75.7451 9.42496 75.7451H9.07496C6.7183 75.7451 4.88663 76.7134 3.57996 78.6501ZM14.3796 76.6299C15.7762 77.82 17.2105 79.7993 18.6984 82.4681L18.6999 82.4708L18.995 83.0039V74.3251M24.997 66.4053L24.995 66.4095C24.015 68.4953 22.6292 70.158 20.8324 71.3644L20.8256 71.369L20.8187 71.3735C18.9859 72.5609 16.892 73.1442 14.57 73.1442H12.505C10.1829 73.1442 8.08898 72.5609 6.25622 71.3735L6.24795 71.3681C4.42659 70.1623 3.02666 68.4989 2.0449 66.4095L2.04294 66.4053C1.0618 64.292 0.584962 61.8925 0.584962 59.2292C0.584962 56.5663 1.06168 54.1764 2.0449 52.0839C3.02687 49.9941 4.42926 48.3497 6.25767 47.189C8.07024 45.9999 10.1651 45.4192 12.505 45.4192H14.57C16.9124 45.4192 19.018 46.0011 20.8522 47.189C22.6588 48.3508 24.0488 49.9957 25.03 52.0839L25.0342 52.0929C25.9912 54.1831 26.455 56.5697 26.455 59.2292C26.455 61.8925 25.9781 64.292 24.997 66.4053ZM20.31 48.0292C18.6533 46.9559 16.74 46.4192 14.57 46.4192H12.505C10.335 46.4192 8.43329 46.9559 6.79996 48.0292C5.14329 49.0792 3.85996 50.5725 2.94996 52.5092C2.03996 54.4459 1.58496 56.6859 1.58496 59.2292C1.58496 61.7725 2.03996 64.0242 2.94996 65.9842C3.85996 67.9209 5.1433 69.4375 6.79996 70.5342C8.45663 71.6075 10.3583 72.1442 12.505 72.1442H14.57C16.7166 72.1442 18.6183 71.6075 20.275 70.5342C21.9083 69.4375 23.18 67.9209 24.09 65.9842C25 64.0242 25.455 61.7725 25.455 59.2292C25.455 56.6859 25.0116 54.4459 24.125 52.5092C23.215 50.5725 21.9433 49.0792 20.31 48.0292ZM9.48612 63.6641L9.48801 63.6666C10.1341 64.5222 11.0651 64.9842 12.435 64.9842H14.675C16.0741 64.9842 16.9958 64.5187 17.6141 63.6771C18.2749 62.7777 18.68 61.3446 18.68 59.2292C18.68 57.1092 18.276 55.7018 17.6297 54.843C17.0237 54.0378 16.1006 53.5792 14.675 53.5792H12.435C11.0362 53.5792 10.0961 54.0451 9.453 54.8968C8.77279 55.7976 8.35996 57.2056 8.35996 59.2642C8.35996 61.3162 8.7818 62.7374 9.48612 63.6641ZM24.997 37.7969L24.995 37.8011C24.015 39.8869 22.6292 41.5496 20.8324 42.756L20.8256 42.7606L20.8187 42.7651C18.9859 43.9525 16.892 44.5358 14.57 44.5358H12.505C10.1829 44.5358 8.08898 43.9525 6.25622 42.7651L6.24795 42.7597C4.42656 41.554 3.02666 39.8905 2.04489 37.8011L2.04294 37.7969C1.0618 35.6837 0.584961 33.2841 0.584961 30.6208C0.584961 27.9579 1.06168 25.568 2.04489 23.4755C3.02689 21.3856 4.42931 19.7413 6.25776 18.5805C8.0703 17.3915 10.1651 16.8108 12.505 16.8108H14.57C16.9124 16.8108 19.018 17.3927 20.8522 18.5806C22.6588 19.7424 24.0488 21.3873 25.03 23.4755L25.0342 23.4845C25.9912 25.5747 26.455 27.9613 26.455 30.6208C26.455 33.2841 25.9781 35.6837 24.997 37.7969ZM20.31 19.4208C18.6533 18.3475 16.74 17.8108 14.57 17.8108H12.505C10.335 17.8108 8.43329 18.3475 6.79996 19.4208C5.14329 20.4708 3.85996 21.9641 2.94996 23.9008C2.03996 25.8375 1.58496 28.0775 1.58496 30.6208C1.58496 33.1641 2.03996 35.4158 2.94996 37.3758C3.85996 39.3125 5.14329 40.8291 6.79996 41.9258C8.45663 42.9991 10.3583 43.5358 12.505 43.5358H14.57C16.7166 43.5358 18.6183 42.9991 20.275 41.9258C21.9083 40.8291 23.18 39.3125 24.09 37.3758C25 35.4158 25.455 33.1641 25.455 30.6208C25.455 28.0775 25.0116 25.8375 24.125 23.9008C23.215 21.9641 21.9433 20.4708 20.31 19.4208ZM9.48612 35.0557L9.48801 35.0582C10.1341 35.9138 11.0651 36.3758 12.435 36.3758H14.675C16.0741 36.3758 16.9958 35.9103 17.6141 35.0687C18.2749 34.1693 18.68 32.7362 18.68 30.6208C18.68 28.5008 18.276 27.0934 17.6297 26.2346C17.0237 25.4294 16.1006 24.9708 14.675 24.9708H12.435C11.0362 24.9708 10.0961 25.4367 9.453 26.2884C8.77279 27.1892 8.35996 28.5972 8.35996 30.6558C8.35996 32.7078 8.7818 34.129 9.48612 35.0557ZM26 0.837402L26 9.0324L10.7806 9.0324C10.9181 9.71379 10.985 10.4314 10.985 11.1824V15.6474H3.20996V11.2874C3.20996 10.2108 3.05036 9.62402 2.88475 9.35284C2.76491 9.1843 2.55576 9.0324 2.03996 9.0324H1.03996L1.03996 0.837403L26 0.837402ZM3.71996 8.8024C4.04663 9.31574 4.20996 10.1441 4.20996 11.2874V14.6474H9.98496V11.1824C9.98496 10.4153 9.9093 9.69863 9.75799 9.0324C9.67917 8.68539 9.57983 8.35205 9.45996 8.0324L25 8.0324L25 1.8374H2.03996L2.03996 8.0324C2.80996 8.0324 3.36996 8.28907 3.71996 8.8024ZM14.675 52.5792C18.0116 52.5792 19.68 54.7959 19.68 59.2292C19.68 61.4459 19.26 63.1259 18.42 64.2692C17.58 65.4125 16.3316 65.9842 14.675 65.9842H12.435C10.8016 65.9842 9.5533 65.4125 8.68996 64.2692C7.8033 63.1025 7.35996 61.4342 7.35996 59.2642C7.35996 57.0942 7.79163 55.4375 8.65496 54.2942C9.5183 53.1509 10.7783 52.5792 12.435 52.5792H14.675ZM14.675 23.9708C18.0116 23.9708 19.68 26.1875 19.68 30.6208C19.68 32.8375 19.26 34.5175 18.42 35.6608C17.58 36.8041 16.3316 37.3758 14.675 37.3758H12.435C10.8016 37.3758 9.5533 36.8041 8.68996 35.6608C7.8033 34.4941 7.35996 32.8258 7.35996 30.6558C7.35996 28.4858 7.79163 26.8291 8.65496 25.6858C9.5183 24.5425 10.7783 23.9708 12.435 23.9708H14.675Z" fill="#313131"/>
</svg>

<svg width="27" height="99" fill="none" xmlns="http://www.w3.org/2000/svg"><path fill-rule="evenodd" clip-rule="evenodd" d="M18.995 74.325H26v24.4h-6.347l-6.725-12.061-.001-.002c-.646-1.153-1.16-1.988-1.546-2.525-.419-.572-.72-.849-.896-.954l-.007-.005-.008-.005a1.33 1.33 0 00-.73-.198h-.315c-.25 0-.43.059-.574.15-.15.095-.314.26-.472.552l-.008.015-.01.015c-.334.57-.561 1.517-.561 2.958 0 1.536.278 2.573.71 3.23l.004.006c.362.557.861.84 1.646.84h1.7v7.984h-1.735c-3.058 0-5.506-1.011-7.16-3.15-1.64-2.093-2.38-5.081-2.38-8.805 0-3.585.683-6.517 2.168-8.683 1.495-2.213 3.638-3.342 6.322-3.342h.35c1.84 0 3.502.644 4.953 1.884M3.58 78.65c-1.33 1.937-1.995 4.643-1.995 8.12 0 3.617.723 6.347 2.17 8.19 1.378 1.785 3.413 2.706 6.105 2.762.088.002.176.003.265.003h.735V91.74h-.7c-1.097 0-1.925-.432-2.485-1.295-.583-.887-.875-2.147-.875-3.78 0-1.517.233-2.672.7-3.465.443-.817 1.085-1.225 1.925-1.225h.315c.467 0 .887.117 1.26.35.35.21.747.618 1.19 1.225.42.583.957 1.458 1.61 2.625l6.44 11.55H25v-22.4h-5.005v11.55l-2.17-3.92c-1.47-2.637-2.835-4.492-4.095-5.565-1.283-1.097-2.718-1.645-4.305-1.645h-.35c-2.357 0-4.188.968-5.495 2.905zm10.8-2.02c1.396 1.19 2.83 3.17 4.318 5.838l.002.003.295.533v-8.679m6.002-7.92l-.002.004c-.98 2.086-2.366 3.749-4.163 4.955l-.006.005-.007.005c-1.833 1.187-3.927 1.77-6.249 1.77h-2.065c-2.322 0-4.416-.583-6.249-1.77l-.008-.006c-1.821-1.206-3.221-2.87-4.203-4.959l-.002-.004C1.062 64.292.585 61.892.585 59.23c0-2.663.477-5.053 1.46-7.145.982-2.09 2.384-3.734 4.213-4.895 1.812-1.19 3.907-1.77 6.247-1.77h2.065c2.342 0 4.448.582 6.282 1.77 1.807 1.162 3.197 2.807 4.178 4.895l.004.009c.957 2.09 1.421 4.477 1.421 7.136 0 2.663-.477 5.063-1.458 7.176zM20.31 48.03c-1.657-1.073-3.57-1.61-5.74-1.61h-2.065c-2.17 0-4.072.537-5.705 1.61-1.657 1.05-2.94 2.543-3.85 4.48-.91 1.937-1.365 4.177-1.365 6.72 0 2.544.455 4.795 1.365 6.755.91 1.937 2.193 3.454 3.85 4.55 1.657 1.073 3.558 1.61 5.705 1.61h2.065c2.147 0 4.048-.537 5.705-1.61 1.633-1.097 2.905-2.613 3.815-4.55.91-1.96 1.365-4.211 1.365-6.755 0-2.543-.443-4.783-1.33-6.72-.91-1.937-2.182-3.43-3.815-4.48zM9.486 63.664l.002.003c.646.855 1.577 1.317 2.947 1.317h2.24c1.4 0 2.32-.465 2.94-1.307.66-.9 1.065-2.332 1.065-4.448 0-2.12-.404-3.527-1.05-4.386-.606-.805-1.53-1.264-2.955-1.264h-2.24c-1.399 0-2.339.466-2.982 1.318-.68.9-1.093 2.309-1.093 4.367 0 2.052.422 3.473 1.126 4.4zm15.511-25.867l-.002.004c-.98 2.086-2.366 3.749-4.163 4.955l-.006.005-.007.004c-1.833 1.188-3.927 1.77-6.249 1.77h-2.065c-2.322 0-4.416-.582-6.249-1.77l-.008-.005c-1.821-1.206-3.221-2.87-4.203-4.959l-.002-.004C1.062 35.684.585 33.284.585 30.62c0-2.663.477-5.053 1.46-7.145.982-2.09 2.384-3.735 4.213-4.895 1.812-1.19 3.907-1.77 6.247-1.77h2.065c2.342 0 4.448.582 6.282 1.77 1.807 1.161 3.197 2.806 4.178 4.895l.004.009c.957 2.09 1.421 4.476 1.421 7.136 0 2.663-.477 5.063-1.458 7.176zM20.31 19.42c-1.657-1.073-3.57-1.61-5.74-1.61h-2.065c-2.17 0-4.072.537-5.705 1.61-1.657 1.05-2.94 2.543-3.85 4.48-.91 1.936-1.365 4.177-1.365 6.72s.455 4.795 1.365 6.755c.91 1.937 2.193 3.453 3.85 4.55 1.657 1.073 3.558 1.61 5.705 1.61h2.065c2.147 0 4.048-.537 5.705-1.61 1.633-1.097 2.905-2.614 3.815-4.55.91-1.96 1.365-4.212 1.365-6.755s-.443-4.784-1.33-6.72c-.91-1.937-2.182-3.43-3.815-4.48zM9.486 35.056l.002.002c.646.856 1.577 1.318 2.947 1.318h2.24c1.4 0 2.32-.466 2.94-1.307.66-.9 1.065-2.333 1.065-4.448 0-2.12-.404-3.528-1.05-4.386-.606-.806-1.53-1.264-2.955-1.264h-2.24c-1.399 0-2.339.466-2.982 1.317-.68.901-1.093 2.31-1.093 4.368 0 2.052.422 3.473 1.126 4.4zM26 .837v8.195H10.78c.138.682.205 1.4.205 2.15v4.465H3.21v-4.36c0-1.076-.16-1.663-.325-1.934-.12-.169-.33-.32-.845-.32h-1V.836H26zM3.72 8.802c.327.514.49 1.342.49 2.485v3.36h5.775v-3.465a9.72 9.72 0 00-.227-2.15 7.705 7.705 0 00-.298-1H25V1.837H2.04v6.195c.77 0 1.33.257 1.68.77zM14.675 52.58c3.337 0 5.005 2.217 5.005 6.65 0 2.217-.42 3.897-1.26 5.04-.84 1.143-2.088 1.715-3.745 1.715h-2.24c-1.633 0-2.882-.572-3.745-1.715-.887-1.167-1.33-2.835-1.33-5.005s.432-3.827 1.295-4.97c.863-1.143 2.123-1.715 3.78-1.715h2.24zm0-28.608c3.337 0 5.005 2.216 5.005 6.65 0 2.216-.42 3.896-1.26 5.04-.84 1.143-2.088 1.715-3.745 1.715h-2.24c-1.633 0-2.882-.572-3.745-1.715-.887-1.167-1.33-2.835-1.33-5.005s.432-3.827 1.295-4.97c.863-1.143 2.123-1.715 3.78-1.715h2.24z" fill="#313131"/></svg>
